Newaita-dark/.LP/24/battery-full.svg.svg

<svg xmlns="http://www.w3.org/2000/svg" xmlns:xlink="http://www.w3.org/1999/xlink" width="24px" height="24px" viewBox="0 0 24 24" version="1.1">
<g id="surface1">
<path style=" stroke:none;fill-rule:nonzero;fill:rgb(25.882354%,25.882354%,25.882354%);fill-opacity:1;" d="M 1.984375 6.140625 L 1.984375 18.046875 L 20.339844 18.046875 L 20.339844 15.566406 L 20.839844 15.566406 C 21.386719 15.566406 21.832031 15.125 21.832031 14.574219 L 21.832031 9.613281 C 21.832031 9.0625 21.386719 8.621094 20.839844 8.621094 L 20.339844 8.621094 L 20.339844 6.140625 Z M 3.96875 7.628906 L 18.359375 7.628906 L 18.359375 16.558594 L 3.96875 16.558594 Z M 3.96875 7.628906 "/>
<path style=" stroke:none;fill-rule:nonzero;fill:rgb(25.882354%,25.882354%,25.882354%);fill-opacity:1;" d="M 4.464844 8.125 L 4.464844 16.0625 L 7.441406 16.0625 L 7.441406 8.125 Z M 4.464844 8.125 "/>
<path style=" stroke:none;fill-rule:nonzero;fill:rgb(25.882354%,25.882354%,25.882354%);fill-opacity:1;" d="M 14.882812 8.125 L 14.882812 16.0625 L 17.859375 16.0625 L 17.859375 8.125 Z M 14.882812 8.125 "/>
<path style=" stroke:none;fill-rule:nonzero;fill:rgb(25.882354%,25.882354%,25.882354%);fill-opacity:1;" d="M 11.410156 8.125 L 11.410156 16.0625 L 14.386719 16.0625 L 14.386719 8.125 Z M 11.410156 8.125 "/>
<path style=" stroke:none;fill-rule:nonzero;fill:rgb(25.882354%,25.882354%,25.882354%);fill-opacity:1;" d="M 7.9375 8.125 L 7.9375 16.0625 L 10.914062 16.0625 L 10.914062 8.125 Z M 7.9375 8.125 "/>
</g>
</svg>

<svg xmlns="http://www.w3.org/2000/svg" width="24" height="24"><g fill="#424242"><path d="M1.984 6.14v11.907H20.34v-2.48h.5a.991.991 0 0 0 .992-.993v-4.96a.991.991 0 0 0-.992-.993h-.5v-2.48zM3.97 7.63h14.39v8.93H3.97zm0 0"/><path d="M4.465 8.125v7.938H7.44V8.125zm0 0M14.883 8.125v7.938h2.976V8.125zm0 0M11.41 8.125v7.938h2.977V8.125zm0 0M7.938 8.125v7.938h2.976V8.125zm0 0"/></g></svg>
